X:1
T:Zocharti Loch
C:Louis Lewandowski (1821-1894)
M:C
Q:1/4=76
%%score [(1 2) (3 4)]
K:Gm
V:1           clef=treble  name="Tenore I"   snm="T.I"
 (B2c2 d2g2)  | f6e2      | (d2c2 d2)e2 | d4 c2z2 |
 (B2c2 d2g2)  | f8        | d3c (d2fe)  | H d6    ||
V:2           clef=treble  name="Tenore II"  snm="T.II"
 (G2A2 B2e2)  | d6c2      | (B2A2 B2)c2 | B4 A2z2 |
      z8      |     z8    | B3A (B2c2)  | H A6    ||
V:3 clef=bass      name="Basso I"    snm="B.I"
      z8      | z2F,2 G,2A,2 | B,2z2 z2 E,2  | F,4 F,2z2 |
 (D,2F,2 B,2E2) | D8       | G,3G,  G,4     | H^F,6    ||
V:4 clef=bass      name="Basso II"   snm="B.II"
      x8      |     x8    |      x8     |    x8   |
      x8      | z2B,2 C,2D,2 | E,3E, (D,2C,2)  | H D,6    ||
% ----------------------------------------------------------------------------
